X:1
T: Captain Kelly
C:
R:Reel
Q: 232
K:D
M:4/4
L:1/8
|:DF EF D2 dB|AD FD BB, B,2|DF EF D2 dc|BG AF D1/2D1/2D D2|
DF EF D2 dB|AD FD BB, B,2|DF EF D2 dc|BG AF D1/2D1/2D D2|
d2 fd ad fd|ce Ae ce Ae|d2 fd ad fd|((3ABc) eg fd d2|
d2 fd ad fd|ce Ae ce Ae|fd ec dA FA|BG AF D1/2D1/2D D2:|
